icons/circle/48/redshift.svg

<svg xmlns="http://www.w3.org/2000/svg" viewBox="0 0 48 48">
  <defs>
    <linearGradient id="a" x1="1" x2="47" gradientUnits="userSpaceOnUse" gradientTransform="rotate(-90 24 24)">
      <stop stop-color="#df5a48"/>
      <stop offset="1" stop-color="#e26a5a"/>
    </linearGradient>
  </defs>
  <path d="M36.31 5c5.859 4.062 9.688 10.831 9.688 18.5 0 12.426-10.07 22.5-22.5 22.5-7.669 0-14.438-3.828-18.5-9.688a23.24 23.24 0 0 0 3.781 4.969 22.923 22.923 0 0 0 15.469 5.969c12.703 0 23-10.298 23-23a22.92 22.92 0 0 0-5.969-15.469A23.216 23.216 0 0 0 36.31 5zm4.969 3.781A22.911 22.911 0 0 1 47.498 24.5c0 12.703-10.297 23-23 23a22.909 22.909 0 0 1-15.719-6.219C12.939 45.425 18.662 48 24.998 48c12.703 0 23-10.298 23-23 0-6.335-2.575-12.06-6.719-16.219z" opacity=".05"/>
  <path d="M41.28 8.781a22.923 22.923 0 0 1 5.969 15.469c0 12.703-10.297 23-23 23A22.92 22.92 0 0 1 8.78 41.281 22.911 22.911 0 0 0 24.499 47.5c12.703 0 23-10.298 23-23A22.909 22.909 0 0 0 41.28 8.781z" opacity=".1"/>
  <path d="M31.25 2.375C39.865 5.529 46 13.792 46 23.505c0 12.426-10.07 22.5-22.5 22.5-9.708 0-17.971-6.135-21.12-14.75a23 23 0 0 0 44.875-7 23 23 0 0 0-16-21.875z" opacity=".2"/>
  <path d="M24 1c12.703 0 23 10.297 23 23S36.703 47 24 47 1 36.703 1 24 11.297 1 24 1z" fill="url(#a)"/>
  <g>
    <path d="M40.03 7.531A22.922 22.922 0 0 1 45.999 23c0 12.703-10.297 23-23 23A22.92 22.92 0 0 1 7.53 40.031C11.708 44.322 17.54 47 23.999 47c12.703 0 23-10.298 23-23 0-6.462-2.677-12.291-6.969-16.469z" opacity=".1"/>
  </g>
  <g>
    <path d="M25 12c-1.112 0-2.212.195-3.281.563a10.253 10.253 0 0 0-2.875 1.5 7.356 7.356 0 0 0-2.063 2.406A6.507 6.507 0 0 0 16 19.594c0 1.75.602 3.254 1.813 4.531a24.01 24.01 0 0 1 1.313 1.469c.344.425.679.977 1.031 1.625.346.641.539 1.227.594 1.781.017.001.034.017.051.027h-.037c-.551.317-.826.782-.826 1.391 0 .418.143.777.439 1.082a1.506 1.506 0 0 0-.439 1.082c0 .59.264 1.047.791 1.371a1.522 1.522 0 0 0-.227.797c0 .519.184.918.555 1.203.367.281.821.422 1.363.422.231.496.58.891 1.053 1.184.464.293.973.441 1.527.441.55 0 1.053-.148 1.525-.441a2.742 2.742 0 0 0 1.059-1.184c.539 0 .987-.141 1.354-.422.371-.285.559-.683.559-1.203 0-.27-.077-.535-.229-.797.527-.324.787-.781.787-1.371 0-.418-.145-.777-.438-1.082.293-.305.438-.664.438-1.082 0-.61-.276-1.075-.822-1.391h-.051c.012-.001.026-.017.037-.027.051-.554.276-1.141.625-1.781.352-.648.683-1.199 1.031-1.625.348-.43.786-.918 1.313-1.469 1.207-1.277 1.813-2.781 1.813-4.531a6.49 6.49 0 0 0-.781-3.125 7.366 7.366 0 0 0-2.063-2.406 10.253 10.253 0 0 0-2.875-1.5A10.08 10.08 0 0 0 25.002 12z" opacity=".1"/>
    <g transform="scale(3.5433)">
      <path d="M6.773 3.104a2.83 2.83 0 0 0-.926.16 2.894 2.894 0 0 0-.811.423c-.24.18-.435.406-.582.679-.147.272-.22.567-.22.882 0 .494.169.918.511 1.278.149.156.273.294.37.415.098.12.192.276.291.459.098.18.153.346.168.502l.635.565h1.129l.626-.565c.014-.156.078-.322.176-.502.1-.183.193-.339.291-.459.099-.121.222-.26.37-.415.342-.36.513-.784.513-1.278 0-.317-.074-.61-.22-.882a2.08 2.08 0 0 0-.583-.68 2.894 2.894 0 0 0-.811-.423 2.842 2.842 0 0 0-.926-.159" fill="#f2d473"/>
      <path d="M6.209 7.902h1.129m.63.008c.154.089.232.22.232.393a.423.423 0 0 1-.124.305.423.423 0 0 1 .124.305.43.43 0 0 1-.223.387.444.444 0 0 1 .065.225.404.404 0 0 1-.158.34.61.61 0 0 1-.382.119.772.772 0 0 1-.299.334.797.797 0 0 1-.431.124.796.796 0 0 1-.431-.124.776.776 0 0 1-.298-.334.613.613 0 0 1-.384-.119.402.402 0 0 1-.157-.34c0-.076.02-.151.064-.225a.43.43 0 0 1-.224-.387c0-.118.042-.219.124-.305a.419.419 0 0 1-.124-.305.43.43 0 0 1 .234-.393" fill="#d0d4d4"/>
      <path d="M5.556 9.313a.44.44 0 0 0-.053.212c0 .025.006.048.01.07h2.522c0-.022.008-.045.008-.07a.45.45 0 0 0-.053-.212H5.556zM5.38 8.749a.446.446 0 0 0-.036.168.44.44 0 0 0 .018.114h2.822a.455.455 0 0 0 .018-.114.452.452 0 0 0-.036-.168H5.38zM5.362 8.184a.448.448 0 0 0 .009.282h2.796a.452.452 0 0 0 .035-.167.427.427 0 0 0-.018-.115H5.362z" fill="#ecf0f0"/>
      <rect rx=".04" transform="scale(.28222)" y="23" x="23" height="5" width="2" fill="#495f6d"/>
      <path d="M7.056 6.491L5.926 4.94l-.409.282.974 1.27v.282h.565z" fill="#495f6d"/>
      <path d="M6.491 6.491L7.62 4.939l.409.282-.974 1.27v.282h-.564z" fill="#495f6d"/>
    </g>
  </g>
</svg>

<svg xmlns="http://www.w3.org/2000/svg" viewBox="0 0 48 48">
 <defs>
  <linearGradient id="linearGradient3764" x1="1" x2="47" gradientUnits="userSpaceOnUse" gradientTransform="matrix(0,-1,1,0,-1.5e-6,47.999998)">
   <stop style="stop-color:#df5a48;stop-opacity:1"/>
   <stop offset="1" style="stop-color:#e26a5a;stop-opacity:1"/>
  </linearGradient>
 </defs>
 <g>
  <path d="m 36.31 5 c 5.859 4.062 9.688 10.831 9.688 18.5 c 0 12.426 -10.07 22.5 -22.5 22.5 c -7.669 0 -14.438 -3.828 -18.5 -9.688 c 1.037 1.822 2.306 3.499 3.781 4.969 c 4.085 3.712 9.514 5.969 15.469 5.969 c 12.703 0 23 -10.298 23 -23 c 0 -5.954 -2.256 -11.384 -5.969 -15.469 c -1.469 -1.475 -3.147 -2.744 -4.969 -3.781 z m 4.969 3.781 c 3.854 4.113 6.219 9.637 6.219 15.719 c 0 12.703 -10.297 23 -23 23 c -6.081 0 -11.606 -2.364 -15.719 -6.219 c 4.16 4.144 9.883 6.719 16.219 6.719 c 12.703 0 23 -10.298 23 -23 c 0 -6.335 -2.575 -12.06 -6.719 -16.219 z" style="opacity:0.05"/>
  <path d="m 41.28 8.781 c 3.712 4.085 5.969 9.514 5.969 15.469 c 0 12.703 -10.297 23 -23 23 c -5.954 0 -11.384 -2.256 -15.469 -5.969 c 4.113 3.854 9.637 6.219 15.719 6.219 c 12.703 0 23 -10.298 23 -23 c 0 -6.081 -2.364 -11.606 -6.219 -15.719 z" style="opacity:0.1"/>
  <path d="m 31.25 2.375 c 8.615 3.154 14.75 11.417 14.75 21.13 c 0 12.426 -10.07 22.5 -22.5 22.5 c -9.708 0 -17.971 -6.135 -21.12 -14.75 a 23 23 0 0 0 44.875 -7 a 23 23 0 0 0 -16 -21.875 z" style="opacity:0.2"/>
 </g>
 <g>
  <path d="m 24 1 c 12.703 0 23 10.297 23 23 c 0 12.703 -10.297 23 -23 23 -12.703 0 -23 -10.297 -23 -23 0 -12.703 10.297 -23 23 -23 z" style="fill:url(#linearGradient3764);fill-opacity:1"/>
 </g>
 <g>
  <path d="m 40.03 7.531 c 3.712 4.084 5.969 9.514 5.969 15.469 0 12.703 -10.297 23 -23 23 c -5.954 0 -11.384 -2.256 -15.469 -5.969 4.178 4.291 10.01 6.969 16.469 6.969 c 12.703 0 23 -10.298 23 -23 0 -6.462 -2.677 -12.291 -6.969 -16.469 z" style="opacity:0.1"/>
 </g>
 <g transform="scale(3.543307,3.543307)">
  <g transform="translate(0.28222222,0.28222271)" style="fill:#000;opacity:0.1;fill-opacity:1">
   <path d="m 25,12 c -1.112,0 -2.212,0.195 -3.281,0.563 -1.073,0.367 -2.028,0.863 -2.875,1.5 -0.851,0.64 -1.54,1.441 -2.063,2.406 -0.519,0.965 -0.781,2.01 -0.781,3.125 0,1.75 0.602,3.254 1.813,4.531 0.528,0.551 0.965,1.039 1.313,1.469 0.344,0.425 0.679,0.977 1.031,1.625 0.346,0.641 0.539,1.227 0.594,1.781 0.017,0.001 0.034,0.017 0.051,0.027 l -0.037,0 c -0.551,0.317 -0.826,0.782 -0.826,1.391 0,0.418 0.143,0.777 0.439,1.082 -0.293,0.305 -0.439,0.664 -0.439,1.082 0,0.59 0.264,1.047 0.791,1.371 -0.157,0.262 -0.227,0.527 -0.227,0.797 0,0.519 0.184,0.918 0.555,1.203 0.367,0.281 0.821,0.422 1.363,0.422 0.231,0.496 0.58,0.891 1.053,1.184 0.464,0.293 0.973,0.441 1.527,0.441 0.55,0 1.053,-0.148 1.525,-0.441 0.473,-0.293 0.825,-0.688 1.059,-1.184 0.539,0 0.987,-0.141 1.354,-0.422 0.371,-0.285 0.559,-0.683 0.559,-1.203 0,-0.27 -0.077,-0.535 -0.229,-0.797 0.527,-0.324 0.787,-0.781 0.787,-1.371 0,-0.418 -0.145,-0.777 -0.438,-1.082 0.293,-0.305 0.438,-0.664 0.438,-1.082 0,-0.61 -0.276,-1.075 -0.822,-1.391 l -0.051,0 C 29.195,29.026 29.209,29.01 29.22,29 c 0.051,-0.554 0.276,-1.141 0.625,-1.781 0.352,-0.648 0.683,-1.199 1.031,-1.625 0.348,-0.43 0.786,-0.918 1.313,-1.469 1.207,-1.277 1.813,-2.781 1.813,-4.531 0,-1.121 -0.262,-2.16 -0.781,-3.125 C 32.697,15.504 32.01,14.704 31.158,14.063 30.311,13.426 29.356,12.93 28.283,12.563 27.214,12.196 26.114,12 25.002,12 Z" transform="matrix(0.28222223,0,0,0.28222223,-0.28222222,-0.28222271)" style="stroke:none;fill-rule:nonzero"/>
  </g>
  <g>
   <path d="m 24 11 c -1.112 0 -2.212 0.194 -3.281 0.563 -1.073 0.367 -2.028 0.863 -2.875 1.5 -0.851 0.64 -1.54 1.441 -2.063 2.406 -0.519 0.965 -0.781 2.01 -0.781 3.125 0 1.75 0.601 3.254 1.813 4.531 0.528 0.551 0.966 1.039 1.314 1.469 0.344 0.425 0.677 0.977 1.029 1.625 0.346 0.641 0.541 1.227 0.596 1.781 l 2.25 2 l 3.998 0 2.219 -2 c 0.051 -0.554 0.276 -1.141 0.625 -1.781 0.352 -0.648 0.683 -1.199 1.031 -1.625 0.348 -0.43 0.785 -0.918 1.313 -1.469 1.207 -1.277 1.814 -2.781 1.814 -4.531 0 -1.121 -0.262 -2.16 -0.781 -3.125 -0.524 -0.965 -1.212 -1.765 -2.064 -2.406 -0.847 -0.637 -1.802 -1.133 -2.875 -1.5 c -1.069 -0.367 -2.167 -0.563 -3.279 -0.563" transform="scale(0.28222223,0.28222223)" style="fill:#f2d473;fill-opacity:1;stroke:none;fill-rule:nonzero"/>
   <path d="m 6.209,7.902 1.129,0 M 7.968,7.91 C 8.122,7.999 8.2,8.13 8.2,8.303 8.2,8.421 8.159,8.522 8.076,8.608 8.159,8.694 8.2,8.795 8.2,8.913 8.2,9.08 8.126,9.208 7.977,9.3 8.02,9.374 8.042,9.449 8.042,9.525 8.042,9.672 7.989,9.784 7.884,9.865 7.78,9.944 7.654,9.984 7.502,9.984 7.436,10.124 7.337,10.235 7.203,10.318 7.07,10.401 6.927,10.442 6.772,10.442 6.615,10.442 6.472,10.4 6.341,10.318 6.208,10.235 6.109,10.124 6.043,9.984 5.89,9.984 5.762,9.944 5.659,9.865 5.554,9.785 5.502,9.672 5.502,9.525 5.502,9.449 5.522,9.374 5.566,9.3 5.417,9.209 5.342,9.08 5.342,8.913 5.342,8.795 5.384,8.694 5.466,8.608 5.382,8.522 5.342,8.421 5.342,8.303 5.342,8.131 5.42,8 5.576,7.91" style="fill:#d0d4d4;fill-opacity:1;stroke:none;fill-rule:nonzero"/>
   <path transform="scale(0.28222223,0.28222223)" d="m 19.688,33 c -0.132,0.242 -0.188,0.502 -0.188,0.75 0,0.087 0.021,0.17 0.031,0.25 l 8.938,0 C 28.47,33.92 28.5,33.837 28.5,33.75 28.5,33.502 28.441,33.242 28.312,33 l -8.625,0 z" style="fill:#ecf0f0;fill-opacity:1;stroke:none"/>
   <path transform="scale(0.28222223,0.28222223)" d="m 19.06 31 c -0.074 0.18 -0.125 0.385 -0.125 0.594 0 0.148 0.029 0.275 0.063 0.406 l 10 0 c 0.033 -0.131 0.063 -0.259 0.063 -0.406 0 -0.209 -0.052 -0.414 -0.125 -0.594 l -9.875 0 z" style="fill:#ecf0f0;fill-opacity:1;stroke:none"/>
   <path transform="scale(0.28222223,0.28222223)" d="m 19 29 c -0.035 0.134 -0.063 0.254 -0.063 0.406 0 0.209 0.021 0.414 0.094 0.594 l 9.906 0 c 0.073 -0.18 0.125 -0.385 0.125 -0.594 0 -0.152 -0.028 -0.272 -0.063 -0.406 l -10 0 z" style="fill:#ecf0f0;fill-opacity:1;stroke:none"/>
   <rect rx="0.04" transform="scale(0.28222223,0.28222223)" y="23" x="23" height="5" width="2" style="fill:#495f6d;fill-opacity:1;stroke:none"/>
   <path transform="scale(0.28222223,0.28222223)" d="m 25 23 -4 -5.5 -1.45 1 3.45 4.5 0 1 2 0 z" style="fill:#495f6d;fill-opacity:1;stroke:none"/>
   <path d="m 6.491 6.491 1.129 -1.552 0.409 0.282 -0.974 1.27 0 0.282 -0.564 0 z" style="fill:#495f6d;fill-opacity:1;stroke:none"/>
  </g>
 </g>
</svg>
